X:3
T:Paidushko Choro
R:paidushko horo
H:See also #1
O:Bulgaria
M:5/8
L:1/8
K:G
B2 ddd | B2 ccc | cB A2G | B2 BBB |
B2 ddd | B2 ccc | cB A2G | A2 AAA :|
|: cB A2G | FG A2G | cB A2G | B2 ddd |
cB A2G | FG A2G | cB A2G | A2 AAA :| !fine!
|: B2 ddd | B2 ccc | cB A2G | B2 BBB |
B2 ddd | B2 ccc | cB A2G | A2 AAA :|
|: cB A2G | FG A2G | cB A2G | B2 ddd |
cB A2G | FG A2G | cB A2G | A2 AAA :|
K:Amix
|: A2 e2A | e2 edc | A2 e2A | e2 B2A |
A2 e2A | e2 edc | A2 e2A | e2 B2A :|
|: A2 ABc | d2 d2c | d2 Ad2 | c2 B2A |
A2 ABc | d2 d2c | d2 Ad2 | c2 B2A :|
|: d2 Ad2 | d2 d2c | d2 Ad2 | c2 B2A |
d2 Ad2 | d2 d2c | d2 Ad2 | c2 B2A :|
